data/luts/cool_shadow.cube
TITLE "cool_shadow"
LUT_3D_SIZE 9
DOMAIN_MIN 0.0 0.0 0.0
DOMAIN_MAX 1.0 1.0 1.0
0.000000 0.020000 0.040000
0.120000 0.018950 0.037900
0.240000 0.017900 0.035800
0.360000 0.016850 0.033700
0.480000 0.015800 0.031600
0.600000 0.014750 0.029500
0.720000 0.013700 0.027400
0.840000 0.012650 0.025300
0.960000 0.011600 0.023200
0.000000 0.142935 0.035870
0.120000 0.141885 0.033770
0.240000 0.140835 0.031670
0.360000 0.139785 0.029570
0.480000 0.138735 0.027470
0.600000 0.137685 0.025370
0.720000 0.136635 0.023270
0.840000 0.135585 0.021170
0.960000 0.134535 0.019070
0.000000 0.265870 0.031740
0.120000 0.264820 0.029640
0.240000 0.263770 0.027540
0.360000 0.262720 0.025440
0.480000 0.261670 0.023340
0.600000 0.260620 0.021240
0.720000 0.259570 0.019140
0.840000 0.258520 0.017040
0.960000 0.257470 0.014940
0.000000 0.388805 0.027610
0.120000 0.387755 0.025510
0.240000 0.386705 0.023410
0.360000 0.385655 0.021310
0.480000 0.384605 0.019210
0.600000 0.383555 0.017110
0.720000 0.382505 0.015010
0.840000 0.381455 0.012910
0.960000 0.380405 0.010810
0.000000 0.511740 0.023480
0.120000 0.510690 0.021380
0.240000 0.509640 0.019280
0.360000 0.508590 0.017180
0.480000 0.507540 0.015080
0.600000 0.506490 0.012980
0.720000 0.505440 0.010880
0.840000 0.504390 0.008780
0.960000 0.503340 0.006680
0.000000 0.634675 0.019350
0.120000 0.633625 0.017250
0.240000 0.632575 0.015150
0.360000 0.631525 0.013050
0.480000 0.630475 0.010950
0.600000 0.629425 0.008850
0.720000 0.628375 0.006750
0.840000 0.627325 0.004650
0.960000 0.626275 0.002550
0.000000 0.757610 0.015220
0.120000 0.756560 0.013120
0.240000 0.755510 0.011020
0.360000 0.754460 0.008920
0.480000 0.753410 0.006820
0.600000 0.752360 0.004720
0.720000 0.751310 0.002620
0.840000 0.750260 0.000520
0.960000 0.750000 0.000000
0.000000 0.880545 0.011090
0.120000 0.879495 0.008990
0.240000 0.878445 0.006890
0.360000 0.877395 0.004790
0.480000 0.876345 0.002690
0.600000 0.875295 0.000590
0.720000 0.875000 0.000000
0.840000 0.875000 0.000000
0.960000 0.875000 0.000000
0.000000 1.000000 0.006960
0.120000 1.000000 0.004860
0.240000 1.000000 0.002760
0.360000 1.000000 0.000660
0.480000 1.000000 0.000000
0.600000 1.000000 0.000000
0.720000 1.000000 0.000000
0.840000 1.000000 0.000000
0.960000 1.000000 0.000000
0.000000 0.019615 0.174230
0.120000 0.018565 0.172130
0.240000 0.017515 0.170030
0.360000 0.016465 0.167930
0.480000 0.015415 0.165830
0.600000 0.014365 0.163730
0.720000 0.013315 0.161630
0.840000 0.012265 0.159530
0.960000 0.011215 0.157430
0.000000 0.142550 0.170100
0.120000 0.141500 0.168000
0.240000 0.140450 0.165900
0.360000 0.139400 0.163800
0.480000 0.138350 0.161700
0.600000 0.137300 0.159600
0.720000 0.136250 0.157500
0.840000 0.135200 0.155400
0.960000 0.134150 0.153300
0.000000 0.265485 0.165970
0.120000 0.264435 0.163870
0.240000 0.263385 0.161770
0.360000 0.262335 0.159670
0.480000 0.261285 0.157570
0.600000 0.260235 0.155470
0.720000 0.259185 0.153370
0.840000 0.258135 0.151270
0.960000 0.257085 0.149170
0.000000 0.388420 0.161840
0.120000 0.387370 0.159740
0.240000 0.386320 0.157640
0.360000 0.385270 0.155540
0.480000 0.384220 0.153440
0.600000 0.383170 0.151340
0.720000 0.382120 0.149240
0.840000 0.381070 0.147140
0.960000 0.380020 0.145040
0.000000 0.511355 0.157710
0.120000 0.510305 0.155610
0.240000 0.509255 0.153510
0.360000 0.508205 0.151410
0.480000 0.507155 0.149310
0.600000 0.506105 0.147210
0.720000 0.505055 0.145110
0.840000 0.504005 0.143010
0.960000 0.502955 0.140910
0.000000 0.634290 0.153580
0.120000 0.633240 0.151480
0.240000 0.632190 0.149380
0.360000 0.631140 0.147280
0.480000 0.630090 0.145180
0.600000 0.629040 0.143080
0.720000 0.627990 0.140980
0.840000 0.626940 0.138880
0.960000 0.625890 0.136780
0.000000 0.757225 0.149450
0.120000 0.756175 0.147350
0.240000 0.755125 0.145250
0.360000 0.754075 0.143150
0.480000 0.753025 0.141050
0.600000 0.751975 0.138950
0.720000 0.750925 0.136850
0.840000 0.750000 0.135000
0.960000 0.750000 0.135000
0.000000 0.880160 0.145320
0.120000 0.879110 0.143220
0.240000 0.878060 0.141120
0.360000 0.877010 0.139020
0.480000 0.875960 0.136920
0.600000 0.875000 0.135000
0.720000 0.875000 0.135000
0.840000 0.875000 0.135000
0.960000 0.875000 0.135000
0.000000 1.000000 0.141190
0.120000 1.000000 0.139090
0.240000 1.000000 0.136990
0.360000 1.000000 0.135000
0.480000 1.000000 0.135000
0.600000 1.000000 0.135000
0.720000 1.000000 0.135000
0.840000 1.000000 0.135000
0.960000 1.000000 0.135000
0.000000 0.019230 0.308460
0.120000 0.018180 0.306360
0.240000 0.017130 0.304260
0.360000 0.016080 0.302160
0.480000 0.015030 0.300060
0.600000 0.013980 0.297960
0.720000 0.012930 0.295860
0.840000 0.011880 0.293760
0.960000 0.010830 0.291660
0.000000 0.142165 0.304330
0.120000 0.141115 0.302230
0.240000 0.140065 0.300130
0.360000 0.139015 0.298030
0.480000 0.137965 0.295930
0.600000 0.136915 0.293830
0.720000 0.135865 0.291730
0.840000 0.134815 0.289630
0.960000 0.133765 0.287530
0.000000 0.265100 0.300200
0.120000 0.264050 0.298100
0.240000 0.263000 0.296000
0.360000 0.261950 0.293900
0.480000 0.260900 0.291800
0.600000 0.259850 0.289700
0.720000 0.258800 0.287600
0.840000 0.257750 0.285500
0.960000 0.256700 0.283400
0.000000 0.388035 0.296070
0.120000 0.386985 0.293970
0.240000 0.385935 0.291870
0.360000 0.384885 0.289770
0.480000 0.383835 0.287670
0.600000 0.382785 0.285570
0.720000 0.381735 0.283470
0.840000 0.380685 0.281370
0.960000 0.379635 0.279270
0.000000 0.510970 0.291940
0.120000 0.509920 0.289840
0.240000 0.508870 0.287740
0.360000 0.507820 0.285640
0.480000 0.506770 0.283540
0.600000 0.505720 0.281440
0.720000 0.504670 0.279340
0.840000 0.503620 0.277240
0.960000 0.502570 0.275140
0.000000 0.633905 0.287810
0.120000 0.632855 0.285710
0.240000 0.631805 0.283610
0.360000 0.630755 0.281510
0.480000 0.629705 0.279410
0.600000 0.628655 0.277310
0.720000 0.627605 0.275210
0.840000 0.626555 0.273110
0.960000 0.625505 0.271010
0.000000 0.756840 0.283680
0.120000 0.755790 0.281580
0.240000 0.754740 0.279480
0.360000 0.753690 0.277380
0.480000 0.752640 0.275280
0.600000 0.751590 0.273180
0.720000 0.750540 0.271080
0.840000 0.750000 0.270000
0.960000 0.750000 0.270000
0.000000 0.879775 0.279550
0.120000 0.878725 0.277450
0.240000 0.877675 0.275350
0.360000 0.876625 0.273250
0.480000 0.875575 0.271150
0.600000 0.875000 0.270000
0.720000 0.875000 0.270000
0.840000 0.875000 0.270000
0.960000 0.875000 0.270000
0.000000 1.000000 0.275420
0.120000 1.000000 0.273320
0.240000 1.000000 0.271220
0.360000 1.000000 0.270000
0.480000 1.000000 0.270000
0.600000 1.000000 0.270000
0.720000 1.000000 0.270000
0.840000 1.000000 0.270000
0.960000 1.000000 0.270000
0.000000 0.018845 0.442690
0.120000 0.017795 0.440590
0.240000 0.016745 0.438490
0.360000 0.015695 0.436390
0.480000 0.014645 0.434290
0.600000 0.013595 0.432190
0.720000 0.012545 0.430090
0.840000 0.011495 0.427990
0.960000 0.010445 0.425890
0.000000 0.141780 0.438560
0.120000 0.140730 0.436460
0.240000 0.139680 0.434360
0.360000 0.138630 0.432260
0.480000 0.137580 0.430160
0.600000 0.136530 0.428060
0.720000 0.135480 0.425960
0.840000 0.134430 0.423860
0.960000 0.133380 0.421760
0.000000 0.264715 0.434430
0.120000 0.263665 0.432330
0.240000 0.262615 0.430230
0.360000 0.261565 0.428130
0.480000 0.260515 0.426030
0.600000 0.259465 0.423930
0.720000 0.258415 0.421830
0.840000 0.257365 0.419730
0.960000 0.256315 0.417630
0.000000 0.387650 0.430300
0.120000 0.386600 0.428200
0.240000 0.385550 0.426100
0.360000 0.384500 0.424000
0.480000 0.383450 0.421900
0.600000 0.382400 0.419800
0.720000 0.381350 0.417700
0.840000 0.380300 0.415600
0.960000 0.379250 0.413500
0.000000 0.510585 0.426170
0.120000 0.509535 0.424070
0.240000 0.508485 0.421970
0.360000 0.507435 0.419870
0.480000 0.506385 0.417770
0.600000 0.505335 0.415670
0.720000 0.504285 0.413570
0.840000 0.503235 0.411470
0.960000 0.502185 0.409370
0.000000 0.633520 0.422040
0.120000 0.632470 0.419940
0.240000 0.631420 0.417840
0.360000 0.630370 0.415740
0.480000 0.629320 0.413640
0.600000 0.628270 0.411540
0.720000 0.627220 0.409440
0.840000 0.626170 0.407340
0.960000 0.625120 0.405240
0.000000 0.756455 0.417910
0.120000 0.755405 0.415810
0.240000 0.754355 0.413710
0.360000 0.753305 0.411610
0.480000 0.752255 0.409510
0.600000 0.751205 0.407410
0.720000 0.750155 0.405310
0.840000 0.750000 0.405000
0.960000 0.750000 0.405000
0.000000 0.879390 0.413780
0.120000 0.878340 0.411680
0.240000 0.877290 0.409580
0.360000 0.876240 0.407480
0.480000 0.875190 0.405380
0.600000 0.875000 0.405000
0.720000 0.875000 0.405000
0.840000 0.875000 0.405000
0.960000 0.875000 0.405000
0.000000 1.000000 0.409650
0.120000 1.000000 0.407550
0.240000 1.000000 0.405450
0.360000 1.000000 0.405000
0.480000 1.000000 0.405000
0.600000 1.000000 0.405000
0.720000 1.000000 0.405000
0.840000 1.000000 0.405000
0.960000 1.000000 0.405000
0.000000 0.018460 0.576920
0.120000 0.017410 0.574820
0.240000 0.016360 0.572720
0.360000 0.015310 0.570620
0.480000 0.014260 0.568520
0.600000 0.013210 0.566420
0.720000 0.012160 0.564320
0.840000 0.011110 0.562220
0.960000 0.010060 0.560120
0.000000 0.141395 0.572790
0.120000 0.140345 0.570690
0.240000 0.139295 0.568590
0.360000 0.138245 0.566490
0.480000 0.137195 0.564390
0.600000 0.136145 0.562290
0.720000 0.135095 0.560190
0.840000 0.134045 0.558090
0.960000 0.132995 0.555990
0.000000 0.264330 0.568660
0.120000 0.263280 0.566560
0.240000 0.262230 0.564460
0.360000 0.261180 0.562360
0.480000 0.260130 0.560260
0.600000 0.259080 0.558160
0.720000 0.258030 0.556060
0.840000 0.256980 0.553960
0.960000 0.255930 0.551860
0.000000 0.387265 0.564530
0.120000 0.386215 0.562430
0.240000 0.385165 0.560330
0.360000 0.384115 0.558230
0.480000 0.383065 0.556130
0.600000 0.382015 0.554030
0.720000 0.380965 0.551930
0.840000 0.379915 0.549830
0.960000 0.378865 0.547730
0.000000 0.510200 0.560400
0.120000 0.509150 0.558300
0.240000 0.508100 0.556200
0.360000 0.507050 0.554100
0.480000 0.506000 0.552000
0.600000 0.504950 0.549900
0.720000 0.503900 0.547800
0.840000 0.502850 0.545700
0.960000 0.501800 0.543600
0.000000 0.633135 0.556270
0.120000 0.632085 0.554170
0.240000 0.631035 0.552070
0.360000 0.629985 0.549970
0.480000 0.628935 0.547870
0.600000 0.627885 0.545770
0.720000 0.626835 0.543670
0.840000 0.625785 0.541570
0.960000 0.625000 0.540000
0.000000 0.756070 0.552140
0.120000 0.755020 0.550040
0.240000 0.753970 0.547940
0.360000 0.752920 0.545840
0.480000 0.751870 0.543740
0.600000 0.750820 0.541640
0.720000 0.750000 0.540000
0.840000 0.750000 0.540000
0.960000 0.750000 0.540000
0.000000 0.879005 0.548010
0.120000 0.877955 0.545910
0.240000 0.876905 0.543810
0.360000 0.875855 0.541710
0.480000 0.875000 0.540000
0.600000 0.875000 0.540000
0.720000 0.875000 0.540000
0.840000 0.875000 0.540000
0.960000 0.875000 0.540000
0.000000 1.000000 0.543880
0.120000 1.000000 0.541780
0.240000 1.000000 0.540000
0.360000 1.000000 0.540000
0.480000 1.000000 0.540000
0.600000 1.000000 0.540000
0.720000 1.000000 0.540000
0.840000 1.000000 0.540000
0.960000 1.000000 0.540000
0.000000 0.018075 0.711150
0.120000 0.017025 0.709050
0.240000 0.015975 0.706950
0.360000 0.014925 0.704850
0.480000 0.013875 0.702750
0.600000 0.012825 0.700650
0.720000 0.011775 0.698550
0.840000 0.010725 0.696450
0.960000 0.009675 0.694350
0.000000 0.141010 0.707020
0.120000 0.139960 0.704920
0.240000 0.138910 0.702820
0.360000 0.137860 0.700720
0.480000 0.136810 0.698620
0.600000 0.135760 0.696520
0.720000 0.134710 0.694420
0.840000 0.133660 0.692320
0.960000 0.132610 0.690220
0.000000 0.263945 0.702890
0.120000 0.262895 0.700790
0.240000 0.261845 0.698690
0.360000 0.260795 0.696590
0.480000 0.259745 0.694490
0.600000 0.258695 0.692390
0.720000 0.257645 0.690290
0.840000 0.256595 0.688190
0.960000 0.255545 0.686090
0.000000 0.386880 0.698760
0.120000 0.385830 0.696660
0.240000 0.384780 0.694560
0.360000 0.383730 0.692460
0.480000 0.382680 0.690360
0.600000 0.381630 0.688260
0.720000 0.380580 0.686160
0.840000 0.379530 0.684060
0.960000 0.378480 0.681960
0.000000 0.509815 0.694630
0.120000 0.508765 0.692530
0.240000 0.507715 0.690430
0.360000 0.506665 0.688330
0.480000 0.505615 0.686230
0.600000 0.504565 0.684130
0.720000 0.503515 0.682030
0.840000 0.502465 0.679930
0.960000 0.501415 0.677830
0.000000 0.632750 0.690500
0.120000 0.631700 0.688400
0.240000 0.630650 0.686300
0.360000 0.629600 0.684200
0.480000 0.628550 0.682100
0.600000 0.627500 0.680000
0.720000 0.626450 0.677900
0.840000 0.625400 0.675800
0.960000 0.625000 0.675000
0.000000 0.755685 0.686370
0.120000 0.754635 0.684270
0.240000 0.753585 0.682170
0.360000 0.752535 0.680070
0.480000 0.751485 0.677970
0.600000 0.750435 0.675870
0.720000 0.750000 0.675000
0.840000 0.750000 0.675000
0.960000 0.750000 0.675000
0.000000 0.878620 0.682240
0.120000 0.877570 0.680140
0.240000 0.876520 0.678040
0.360000 0.875470 0.675940
0.480000 0.875000 0.675000
0.600000 0.875000 0.675000
0.720000 0.875000 0.675000
0.840000 0.875000 0.675000
0.960000 0.875000 0.675000
0.000000 1.000000 0.678110
0.120000 1.000000 0.676010
0.240000 1.000000 0.675000
0.360000 1.000000 0.675000
0.480000 1.000000 0.675000
0.600000 1.000000 0.675000
0.720000 1.000000 0.675000
0.840000 1.000000 0.675000
0.960000 1.000000 0.675000
0.000000 0.017690 0.845380
0.120000 0.016640 0.843280
0.240000 0.015590 0.841180
0.360000 0.014540 0.839080
0.480000 0.013490 0.836980
0.600000 0.012440 0.834880
0.720000 0.011390 0.832780
0.840000 0.010340 0.830680
0.960000 0.009290 0.828580
0.000000 0.140625 0.841250
0.120000 0.139575 0.839150
0.240000 0.138525 0.837050
0.360000 0.137475 0.834950
0.480000 0.136425 0.832850
0.600000 0.135375 0.830750
0.720000 0.134325 0.828650
0.840000 0.133275 0.826550
0.960000 0.132225 0.824450
0.000000 0.263560 0.837120
0.120000 0.262510 0.835020
0.240000 0.261460 0.832920
0.360000 0.260410 0.830820
0.480000 0.259360 0.828720
0.600000 0.258310 0.826620
0.720000 0.257260 0.824520
0.840000 0.256210 0.822420
0.960000 0.255160 0.820320
0.000000 0.386495 0.832990
0.120000 0.385445 0.830890
0.240000 0.384395 0.828790
0.360000 0.383345 0.826690
0.480000 0.382295 0.824590
0.600000 0.381245 0.822490
0.720000 0.380195 0.820390
0.840000 0.379145 0.818290
0.960000 0.378095 0.816190
0.000000 0.509430 0.828860
0.120000 0.508380 0.826760
0.240000 0.507330 0.824660
0.360000 0.506280 0.822560
0.480000 0.505230 0.820460
0.600000 0.504180 0.818360
0.720000 0.503130 0.816260
0.840000 0.502080 0.814160
0.960000 0.501030 0.812060
0.000000 0.632365 0.824730
0.120000 0.631315 0.822630
0.240000 0.630265 0.820530
0.360000 0.629215 0.818430
0.480000 0.628165 0.816330
0.600000 0.627115 0.814230
0.720000 0.626065 0.812130
0.840000 0.625015 0.810030
0.960000 0.625000 0.810000
0.000000 0.755300 0.820600
0.120000 0.754250 0.818500
0.240000 0.753200 0.816400
0.360000 0.752150 0.814300
0.480000 0.751100 0.812200
0.600000 0.750050 0.810100
0.720000 0.750000 0.810000
0.840000 0.750000 0.810000
0.960000 0.750000 0.810000
0.000000 0.878235 0.816470
0.120000 0.877185 0.814370
0.240000 0.876135 0.812270
0.360000 0.875085 0.810170
0.480000 0.875000 0.810000
0.600000 0.875000 0.810000
0.720000 0.875000 0.810000
0.840000 0.875000 0.810000
0.960000 0.875000 0.810000
0.000000 1.000000 0.812340
0.120000 1.000000 0.810240
0.240000 1.000000 0.810000
0.360000 1.000000 0.810000
0.480000 1.000000 0.810000
0.600000 1.000000 0.810000
0.720000 1.000000 0.810000
0.840000 1.000000 0.810000
0.960000 1.000000 0.810000
0.000000 0.017305 0.979610
0.120000 0.016255 0.977510
0.240000 0.015205 0.975410
0.360000 0.014155 0.973310
0.480000 0.013105 0.971210
0.600000 0.012055 0.969110
0.720000 0.011005 0.967010
0.840000 0.009955 0.964910
0.960000 0.008905 0.962810
0.000000 0.140240 0.975480
0.120000 0.139190 0.973380
0.240000 0.138140 0.971280
0.360000 0.137090 0.969180
0.480000 0.136040 0.967080
0.600000 0.134990 0.964980
0.720000 0.133940 0.962880
0.840000 0.132890 0.960780
0.960000 0.131840 0.958680
0.000000 0.263175 0.971350
0.120000 0.262125 0.969250
0.240000 0.261075 0.967150
0.360000 0.260025 0.965050
0.480000 0.258975 0.962950
0.600000 0.257925 0.960850
0.720000 0.256875 0.958750
0.840000 0.255825 0.956650
0.960000 0.254775 0.954550
0.000000 0.386110 0.967220
0.120000 0.385060 0.965120
0.240000 0.384010 0.963020
0.360000 0.382960 0.960920
0.480000 0.381910 0.958820
0.600000 0.380860 0.956720
0.720000 0.379810 0.954620
0.840000 0.378760 0.952520
0.960000 0.377710 0.950420
0.000000 0.509045 0.963090
0.120000 0.507995 0.960990
0.240000 0.506945 0.958890
0.360000 0.505895 0.956790
0.480000 0.504845 0.954690
0.600000 0.503795 0.952590
0.720000 0.502745 0.950490
0.840000 0.501695 0.948390
0.960000 0.500645 0.946290
0.000000 0.631980 0.958960
0.120000 0.630930 0.956860
0.240000 0.629880 0.954760
0.360000 0.628830 0.952660
0.480000 0.627780 0.950560
0.600000 0.626730 0.948460
0.720000 0.625680 0.946360
0.840000 0.625000 0.945000
0.960000 0.625000 0.945000
0.000000 0.754915 0.954830
0.120000 0.753865 0.952730
0.240000 0.752815 0.950630
0.360000 0.751765 0.948530
0.480000 0.750715 0.946430
0.600000 0.750000 0.945000
0.720000 0.750000 0.945000
0.840000 0.750000 0.945000
0.960000 0.750000 0.945000
0.000000 0.877850 0.950700
0.120000 0.876800 0.948600
0.240000 0.875750 0.946500
0.360000 0.875000 0.945000
0.480000 0.875000 0.945000
0.600000 0.875000 0.945000
0.720000 0.875000 0.945000
0.840000 0.875000 0.945000
0.960000 0.875000 0.945000
0.000000 1.000000 0.946570
0.120000 1.000000 0.945000
0.240000 1.000000 0.945000
0.360000 1.000000 0.945000
0.480000 1.000000 0.945000
0.600000 1.000000 0.945000
0.720000 1.000000 0.945000
0.840000 1.000000 0.945000
0.960000 1.000000 0.945000
0.000000 0.016920 1.000000
0.120000 0.015870 1.000000
0.240000 0.014820 1.000000
0.360000 0.013770 1.000000
0.480000 0.012720 1.000000
0.600000 0.011670 1.000000
0.720000 0.010620 1.000000
0.840000 0.009570 1.000000
0.960000 0.008520 1.000000
0.000000 0.139855 1.000000
0.120000 0.138805 1.000000
0.240000 0.137755 1.000000
0.360000 0.136705 1.000000
0.480000 0.135655 1.000000
0.600000 0.134605 1.000000
0.720000 0.133555 1.000000
0.840000 0.132505 1.000000
0.960000 0.131455 1.000000
0.000000 0.262790 1.000000
0.120000 0.261740 1.000000
0.240000 0.260690 1.000000
0.360000 0.259640 1.000000
0.480000 0.258590 1.000000
0.600000 0.257540 1.000000
0.720000 0.256490 1.000000
0.840000 0.255440 1.000000
0.960000 0.254390 1.000000
0.000000 0.385725 1.000000
0.120000 0.384675 1.000000
0.240000 0.383625 1.000000
0.360000 0.382575 1.000000
0.480000 0.381525 1.000000
0.600000 0.380475 1.000000
0.720000 0.379425 1.000000
0.840000 0.378375 1.000000
0.960000 0.377325 1.000000
0.000000 0.508660 1.000000
0.120000 0.507610 1.000000
0.240000 0.506560 1.000000
0.360000 0.505510 1.000000
0.480000 0.504460 1.000000
0.600000 0.503410 1.000000
0.720000 0.502360 1.000000
0.840000 0.501310 1.000000
0.960000 0.500260 1.000000
0.000000 0.631595 1.000000
0.120000 0.630545 1.000000
0.240000 0.629495 1.000000
0.360000 0.628445 1.000000
0.480000 0.627395 1.000000
0.600000 0.626345 1.000000
0.720000 0.625295 1.000000
0.840000 0.625000 1.000000
0.960000 0.625000 1.000000
0.000000 0.754530 1.000000
0.120000 0.753480 1.000000
0.240000 0.752430 1.000000
0.360000 0.751380 1.000000
0.480000 0.750330 1.000000
0.600000 0.750000 1.000000
0.720000 0.750000 1.000000
0.840000 0.750000 1.000000
0.960000 0.750000 1.000000
0.000000 0.877465 1.000000
0.120000 0.876415 1.000000
0.240000 0.875365 1.000000
0.360000 0.875000 1.000000
0.480000 0.875000 1.000000
0.600000 0.875000 1.000000
0.720000 0.875000 1.000000
0.840000 0.875000 1.000000
0.960000 0.875000 1.000000
0.000000 1.000000 1.000000
0.120000 1.000000 1.000000
0.240000 1.000000 1.000000
0.360000 1.000000 1.000000
0.480000 1.000000 1.000000
0.600000 1.000000 1.000000
0.720000 1.000000 1.000000
0.840000 1.000000 1.000000
0.960000 1.000000 1.000000
