data/luts/soft_print.cube
TITLE "soft_print"
LUT_3D_SIZE 9
DOMAIN_MIN 0.0 0.0 0.0
DOMAIN_MAX 1.0 1.0 1.0
0.041472 0.041472 0.041472
0.159278 0.041472 0.041472
0.274968 0.041472 0.041472
0.388542 0.041472 0.041472
0.500000 0.041472 0.041472
0.609342 0.041472 0.041472
0.716568 0.041472 0.041472
0.821678 0.041472 0.041472
0.924672 0.041472 0.041472
0.041472 0.159278 0.041472
0.159278 0.159278 0.041472
0.274968 0.159278 0.041472
0.388542 0.159278 0.041472
0.500000 0.159278 0.041472
0.609342 0.159278 0.041472
0.716568 0.159278 0.041472
0.821678 0.159278 0.041472
0.924672 0.159278 0.041472
0.041472 0.274968 0.041472
0.159278 0.274968 0.041472
0.274968 0.274968 0.041472
0.388542 0.274968 0.041472
0.500000 0.274968 0.041472
0.609342 0.274968 0.041472
0.716568 0.274968 0.041472
0.821678 0.274968 0.041472
0.924672 0.274968 0.041472
0.041472 0.388542 0.041472
0.159278 0.388542 0.041472
0.274968 0.388542 0.041472
0.388542 0.388542 0.041472
0.500000 0.388542 0.041472
0.609342 0.388542 0.041472
0.716568 0.388542 0.041472
0.821678 0.388542 0.041472
0.924672 0.388542 0.041472
0.041472 0.500000 0.041472
0.159278 0.500000 0.041472
0.274968 0.500000 0.041472
0.388542 0.500000 0.041472
0.500000 0.500000 0.041472
0.609342 0.500000 0.041472
0.716568 0.500000 0.041472
0.821678 0.500000 0.041472
0.924672 0.500000 0.041472
0.041472 0.609342 0.041472
0.159278 0.609342 0.041472
0.274968 0.609342 0.041472
0.388542 0.609342 0.041472
0.500000 0.609342 0.041472
0.609342 0.609342 0.041472
0.716568 0.609342 0.041472
0.821678 0.609342 0.041472
0.924672 0.609342 0.041472
0.041472 0.716568 0.041472
0.159278 0.716568 0.041472
0.274968 0.716568 0.041472
0.388542 0.716568 0.041472
0.500000 0.716568 0.041472
0.609342 0.716568 0.041472
0.716568 0.716568 0.041472
0.821678 0.716568 0.041472
0.924672 0.716568 0.041472
0.041472 0.821678 0.041472
0.159278 0.821678 0.041472
0.274968 0.821678 0.041472
0.388542 0.821678 0.041472
0.500000 0.821678 0.041472
0.609342 0.821678 0.041472
0.716568 0.821678 0.041472
0.821678 0.821678 0.041472
0.924672 0.821678 0.041472
0.041472 0.924672 0.041472
0.159278 0.924672 0.041472
0.274968 0.924672 0.041472
0.388542 0.924672 0.041472
0.500000 0.924672 0.041472
0.609342 0.924672 0.041472
0.716568 0.924672 0.041472
0.821678 0.924672 0.041472
0.924672 0.924672 0.041472
0.041472 0.041472 0.159278
0.159278 0.041472 0.159278
0.274968 0.041472 0.159278
0.388542 0.041472 0.159278
0.500000 0.041472 0.159278
0.609342 0.041472 0.159278
0.716568 0.041472 0.159278
0.821678 0.041472 0.159278
0.924672 0.041472 0.159278
0.041472 0.159278 0.159278
0.159278 0.159278 0.159278
0.274968 0.159278 0.159278
0.388542 0.159278 0.159278
0.500000 0.159278 0.159278
0.609342 0.159278 0.159278
0.716568 0.159278 0.159278
0.821678 0.159278 0.159278
0.924672 0.159278 0.159278
0.041472 0.274968 0.159278
0.159278 0.274968 0.159278
0.274968 0.274968 0.159278
0.388542 0.274968 0.159278
0.500000 0.274968 0.159278
0.609342 0.274968 0.159278
0.716568 0.274968 0.159278
0.821678 0.274968 0.159278
0.924672 0.274968 0.159278
0.041472 0.388542 0.159278
0.159278 0.388542 0.159278
0.274968 0.388542 0.159278
0.388542 0.388542 0.159278
0.500000 0.388542 0.159278
0.609342 0.388542 0.159278
0.716568 0.388542 0.159278
0.821678 0.388542 0.159278
0.924672 0.388542 0.159278
0.041472 0.500000 0.159278
0.159278 0.500000 0.159278
0.274968 0.500000 0.159278
0.388542 0.500000 0.159278
0.500000 0.500000 0.159278
0.609342 0.500000 0.159278
0.716568 0.500000 0.159278
0.821678 0.500000 0.159278
0.924672 0.500000 0.159278
0.041472 0.609342 0.159278
0.159278 0.609342 0.159278
0.274968 0.609342 0.159278
0.388542 0.609342 0.159278
0.500000 0.609342 0.159278
0.609342 0.609342 0.159278
0.716568 0.609342 0.159278
0.821678 0.609342 0.159278
0.924672 0.609342 0.159278
0.041472 0.716568 0.159278
0.159278 0.716568 0.159278
0.274968 0.716568 0.159278
0.388542 0.716568 0.159278
0.500000 0.716568 0.159278
0.609342 0.716568 0.159278
0.716568 0.716568 0.159278
0.821678 0.716568 0.159278
0.924672 0.716568 0.159278
0.041472 0.821678 0.159278
0.159278 0.821678 0.159278
0.274968 0.821678 0.159278
0.388542 0.821678 0.159278
0.500000 0.821678 0.159278
0.609342 0.821678 0.159278
0.716568 0.821678 0.159278
0.821678 0.821678 0.159278
0.924672 0.821678 0.159278
0.041472 0.924672 0.159278
0.159278 0.924672 0.159278
0.274968 0.924672 0.159278
0.388542 0.924672 0.159278
0.500000 0.924672 0.159278
0.609342 0.924672 0.159278
0.716568 0.924672 0.159278
0.821678 0.924672 0.159278
0.924672 0.924672 0.159278
0.041472 0.041472 0.274968
0.159278 0.041472 0.274968
0.274968 0.041472 0.274968
0.388542 0.041472 0.274968
0.500000 0.041472 0.274968
0.609342 0.041472 0.274968
0.716568 0.041472 0.274968
0.821678 0.041472 0.274968
0.924672 0.041472 0.274968
0.041472 0.159278 0.274968
0.159278 0.159278 0.274968
0.274968 0.159278 0.274968
0.388542 0.159278 0.274968
0.500000 0.159278 0.274968
0.609342 0.159278 0.274968
0.716568 0.159278 0.274968
0.821678 0.159278 0.274968
0.924672 0.159278 0.274968
0.041472 0.274968 0.274968
0.159278 0.274968 0.274968
0.274968 0.274968 0.274968
0.388542 0.274968 0.274968
0.500000 0.274968 0.274968
0.609342 0.274968 0.274968
0.716568 0.274968 0.274968
0.821678 0.274968 0.274968
0.924672 0.274968 0.274968
0.041472 0.388542 0.274968
0.159278 0.388542 0.274968
0.274968 0.388542 0.274968
0.388542 0.388542 0.274968
0.500000 0.388542 0.274968
0.609342 0.388542 0.274968
0.716568 0.388542 0.274968
0.821678 0.388542 0.274968
0.924672 0.388542 0.274968
0.041472 0.500000 0.274968
0.159278 0.500000 0.274968
0.274968 0.500000 0.274968
0.388542 0.500000 0.274968
0.500000 0.500000 0.274968
0.609342 0.500000 0.274968
0.716568 0.500000 0.274968
0.821678 0.500000 0.274968
0.924672 0.500000 0.274968
0.041472 0.609342 0.274968
0.159278 0.609342 0.274968
0.274968 0.609342 0.274968
0.388542 0.609342 0.274968
0.500000 0.609342 0.274968
0.609342 0.609342 0.274968
0.716568 0.609342 0.274968
0.821678 0.609342 0.274968
0.924672 0.609342 0.274968
0.041472 0.716568 0.274968
0.159278 0.716568 0.274968
0.274968 0.716568 0.274968
0.388542 0.716568 0.274968
0.500000 0.716568 0.274968
0.609342 0.716568 0.274968
0.716568 0.716568 0.274968
0.821678 0.716568 0.274968
0.924672 0.716568 0.274968
0.041472 0.821678 0.274968
0.159278 0.821678 0.274968
0.274968 0.821678 0.274968
0.388542 0.821678 0.274968
0.500000 0.821678 0.274968
0.609342 0.821678 0.274968
0.716568 0.821678 0.274968
0.821678 0.821678 0.274968
0.924672 0.821678 0.274968
0.041472 0.924672 0.274968
0.159278 0.924672 0.274968
0.274968 0.924672 0.274968
0.388542 0.924672 0.274968
0.500000 0.924672 0.274968
0.609342 0.924672 0.274968
0.716568 0.924672 0.274968
0.821678 0.924672 0.274968
0.924672 0.924672 0.274968
0.041472 0.041472 0.388542
0.159278 0.041472 0.388542
0.274968 0.041472 0.388542
0.388542 0.041472 0.388542
0.500000 0.041472 0.388542
0.609342 0.041472 0.388542
0.716568 0.041472 0.388542
0.821678 0.041472 0.388542
0.924672 0.041472 0.388542
0.041472 0.159278 0.388542
0.159278 0.159278 0.388542
0.274968 0.159278 0.388542
0.388542 0.159278 0.388542
0.500000 0.159278 0.388542
0.609342 0.159278 0.388542
0.716568 0.159278 0.388542
0.821678 0.159278 0.388542
0.924672 0.159278 0.388542
0.041472 0.274968 0.388542
0.159278 0.274968 0.388542
0.274968 0.274968 0.388542
0.388542 0.274968 0.388542
0.500000 0.274968 0.388542
0.609342 0.274968 0.388542
0.716568 0.274968 0.388542
0.821678 0.274968 0.388542
0.924672 0.274968 0.388542
0.041472 0.388542 0.388542
0.159278 0.388542 0.388542
0.274968 0.388542 0.388542
0.388542 0.388542 0.388542
0.500000 0.388542 0.388542
0.609342 0.388542 0.388542
0.716568 0.388542 0.388542
0.821678 0.388542 0.388542
0.924672 0.388542 0.388542
0.041472 0.500000 0.388542
0.159278 0.500000 0.388542
0.274968 0.500000 0.388542
0.388542 0.500000 0.388542
0.500000 0.500000 0.388542
0.609342 0.500000 0.388542
0.716568 0.500000 0.388542
0.821678 0.500000 0.388542
0.924672 0.500000 0.388542
0.041472 0.609342 0.388542
0.159278 0.609342 0.388542
0.274968 0.609342 0.388542
0.388542 0.609342 0.388542
0.500000 0.609342 0.388542
0.609342 0.609342 0.388542
0.716568 0.609342 0.388542
0.821678 0.609342 0.388542
0.924672 0.609342 0.388542
0.041472 0.716568 0.388542
0.159278 0.716568 0.388542
0.274968 0.716568 0.388542
0.388542 0.716568 0.388542
0.500000 0.716568 0.388542
0.609342 0.716568 0.388542
0.716568 0.716568 0.388542
0.821678 0.716568 0.388542
0.924672 0.716568 0.388542
0.041472 0.821678 0.388542
0.159278 0.821678 0.388542
0.274968 0.821678 0.388542
0.388542 0.821678 0.388542
0.500000 0.821678 0.388542
0.609342 0.821678 0.388542
0.716568 0.821678 0.388542
0.821678 0.821678 0.388542
0.924672 0.821678 0.388542
0.041472 0.924672 0.388542
0.159278 0.924672 0.388542
0.274968 0.924672 0.388542
0.388542 0.924672 0.388542
0.500000 0.924672 0.388542
0.609342 0.924672 0.388542
0.716568 0.924672 0.388542
0.821678 0.924672 0.388542
0.924672 0.924672 0.388542
0.041472 0.041472 0.500000
0.159278 0.041472 0.500000
0.274968 0.041472 0.500000
0.388542 0.041472 0.500000
0.500000 0.041472 0.500000
0.609342 0.041472 0.500000
0.716568 0.041472 0.500000
0.821678 0.041472 0.500000
0.924672 0.041472 0.500000
0.041472 0.159278 0.500000
0.159278 0.159278 0.500000
0.274968 0.159278 0.500000
0.388542 0.159278 0.500000
0.500000 0.159278 0.500000
0.609342 0.159278 0.500000
0.716568 0.159278 0.500000
0.821678 0.159278 0.500000
0.924672 0.159278 0.500000
0.041472 0.274968 0.500000
0.159278 0.274968 0.500000
0.274968 0.274968 0.500000
0.388542 0.274968 0.500000
0.500000 0.274968 0.500000
0.609342 0.274968 0.500000
0.716568 0.274968 0.500000
0.821678 0.274968 0.500000
0.924672 0.274968 0.500000
0.041472 0.388542 0.500000
0.159278 0.388542 0.500000
0.274968 0.388542 0.500000
0.388542 0.388542 0.500000
0.500000 0.388542 0.500000
0.609342 0.388542 0.500000
0.716568 0.388542 0.500000
0.821678 0.388542 0.500000
0.924672 0.388542 0.500000
0.041472 0.500000 0.500000
0.159278 0.500000 0.500000
0.274968 0.500000 0.500000
0.388542 0.500000 0.500000
0.500000 0.500000 0.500000
0.609342 0.500000 0.500000
0.716568 0.500000 0.500000
0.821678 0.500000 0.500000
0.924672 0.500000 0.500000
0.041472 0.609342 0.500000
0.159278 0.609342 0.500000
0.274968 0.609342 0.500000
0.388542 0.609342 0.500000
0.500000 0.609342 0.500000
0.609342 0.609342 0.500000
0.716568 0.609342 0.500000
0.821678 0.609342 0.500000
0.924672 0.609342 0.500000
0.041472 0.716568 0.500000
0.159278 0.716568 0.500000
0.274968 0.716568 0.500000
0.388542 0.716568 0.500000
0.500000 0.716568 0.500000
0.609342 0.716568 0.500000
0.716568 0.716568 0.500000
0.821678 0.716568 0.500000
0.924672 0.716568 0.500000
0.041472 0.821678 0.500000
0.159278 0.821678 0.500000
0.274968 0.821678 0.500000
0.388542 0.821678 0.500000
0.500000 0.821678 0.500000
0.609342 0.821678 0.500000
0.716568 0.821678 0.500000
0.821678 0.821678 0.500000
0.924672 0.821678 0.500000
0.041472 0.924672 0.500000
0.159278 0.924672 0.500000
0.274968 0.924672 0.500000
0.388542 0.924672 0.500000
0.500000 0.924672 0.500000
0.609342 0.924672 0.500000
0.716568 0.924672 0.500000
0.821678 0.924672 0.500000
0.924672 0.924672 0.500000
0.041472 0.041472 0.609342
0.159278 0.041472 0.609342
0.274968 0.041472 0.609342
0.388542 0.041472 0.609342
0.500000 0.041472 0.609342
0.609342 0.041472 0.609342
0.716568 0.041472 0.609342
0.821678 0.041472 0.609342
0.924672 0.041472 0.609342
0.041472 0.159278 0.609342
0.159278 0.159278 0.609342
0.274968 0.159278 0.609342
0.388542 0.159278 0.609342
0.500000 0.159278 0.609342
0.609342 0.159278 0.609342
0.716568 0.159278 0.609342
0.821678 0.159278 0.609342
0.924672 0.159278 0.609342
0.041472 0.274968 0.609342
0.159278 0.274968 0.609342
0.274968 0.274968 0.609342
0.388542 0.274968 0.609342
0.500000 0.274968 0.609342
0.609342 0.274968 0.609342
0.716568 0.274968 0.609342
0.821678 0.274968 0.609342
0.924672 0.274968 0.609342
0.041472 0.388542 0.609342
0.159278 0.388542 0.609342
0.274968 0.388542 0.609342
0.388542 0.388542 0.609342
0.500000 0.388542 0.609342
0.609342 0.388542 0.609342
0.716568 0.388542 0.609342
0.821678 0.388542 0.609342
0.924672 0.388542 0.609342
0.041472 0.500000 0.609342
0.159278 0.500000 0.609342
0.274968 0.500000 0.609342
0.388542 0.500000 0.609342
0.500000 0.500000 0.609342
0.609342 0.500000 0.609342
0.716568 0.500000 0.609342
0.821678 0.500000 0.609342
0.924672 0.500000 0.609342
0.041472 0.609342 0.609342
0.159278 0.609342 0.609342
0.274968 0.609342 0.609342
0.388542 0.609342 0.609342
0.500000 0.609342 0.609342
0.609342 0.609342 0.609342
0.716568 0.609342 0.609342
0.821678 0.609342 0.609342
0.924672 0.609342 0.609342
0.041472 0.716568 0.609342
0.159278 0.716568 0.609342
0.274968 0.716568 0.609342
0.388542 0.716568 0.609342
0.500000 0.716568 0.609342
0.609342 0.716568 0.609342
0.716568 0.716568 0.609342
0.821678 0.716568 0.609342
0.924672 0.716568 0.609342
0.041472 0.821678 0.609342
0.159278 0.821678 0.609342
0.274968 0.821678 0.609342
0.388542 0.821678 0.609342
0.500000 0.821678 0.609342
0.609342 0.821678 0.609342
0.716568 0.821678 0.609342
0.821678 0.821678 0.609342
0.924672 0.821678 0.609342
0.041472 0.924672 0.609342
0.159278 0.924672 0.609342
0.274968 0.924672 0.609342
0.388542 0.924672 0.609342
0.500000 0.924672 0.609342
0.609342 0.924672 0.609342
0.716568 0.924672 0.609342
0.821678 0.924672 0.609342
0.924672 0.924672 0.609342
0.041472 0.041472 0.716568
0.159278 0.041472 0.716568
0.274968 0.041472 0.716568
0.388542 0.041472 0.716568
0.500000 0.041472 0.716568
0.609342 0.041472 0.716568
0.716568 0.041472 0.716568
0.821678 0.041472 0.716568
0.924672 0.041472 0.716568
0.041472 0.159278 0.716568
0.159278 0.159278 0.716568
0.274968 0.159278 0.716568
0.388542 0.159278 0.716568
0.500000 0.159278 0.716568
0.609342 0.159278 0.716568
0.716568 0.159278 0.716568
0.821678 0.159278 0.716568
0.924672 0.159278 0.716568
0.041472 0.274968 0.716568
0.159278 0.274968 0.716568
0.274968 0.274968 0.716568
0.388542 0.274968 0.716568
0.500000 0.274968 0.716568
0.609342 0.274968 0.716568
0.716568 0.274968 0.716568
0.821678 0.274968 0.716568
0.924672 0.274968 0.716568
0.041472 0.388542 0.716568
0.159278 0.388542 0.716568
0.274968 0.388542 0.716568
0.388542 0.388542 0.716568
0.500000 0.388542 0.716568
0.609342 0.388542 0.716568
0.716568 0.388542 0.716568
0.821678 0.388542 0.716568
0.924672 0.388542 0.716568
0.041472 0.500000 0.716568
0.159278 0.500000 0.716568
0.274968 0.500000 0.716568
0.388542 0.500000 0.716568
0.500000 0.500000 0.716568
0.609342 0.500000 0.716568
0.716568 0.500000 0.716568
0.821678 0.500000 0.716568
0.924672 0.500000 0.716568
0.041472 0.609342 0.716568
0.159278 0.609342 0.716568
0.274968 0.609342 0.716568
0.388542 0.609342 0.716568
0.500000 0.609342 0.716568
0.609342 0.609342 0.716568
0.716568 0.609342 0.716568
0.821678 0.609342 0.716568
0.924672 0.609342 0.716568
0.041472 0.716568 0.716568
0.159278 0.716568 0.716568
0.274968 0.716568 0.716568
0.388542 0.716568 0.716568
0.500000 0.716568 0.716568
0.609342 0.716568 0.716568
0.716568 0.716568 0.716568
0.821678 0.716568 0.716568
0.924672 0.716568 0.716568
0.041472 0.821678 0.716568
0.159278 0.821678 0.716568
0.274968 0.821678 0.716568
0.388542 0.821678 0.716568
0.500000 0.821678 0.716568
0.609342 0.821678 0.716568
0.716568 0.821678 0.716568
0.821678 0.821678 0.716568
0.924672 0.821678 0.716568
0.041472 0.924672 0.716568
0.159278 0.924672 0.716568
0.274968 0.924672 0.716568
0.388542 0.924672 0.716568
0.500000 0.924672 0.716568
0.609342 0.924672 0.716568
0.716568 0.924672 0.716568
0.821678 0.924672 0.716568
0.924672 0.924672 0.716568
0.041472 0.041472 0.821678
0.159278 0.041472 0.821678
0.274968 0.041472 0.821678
0.388542 0.041472 0.821678
0.500000 0.041472 0.821678
0.609342 0.041472 0.821678
0.716568 0.041472 0.821678
0.821678 0.041472 0.821678
0.924672 0.041472 0.821678
0.041472 0.159278 0.821678
0.159278 0.159278 0.821678
0.274968 0.159278 0.821678
0.388542 0.159278 0.821678
0.500000 0.159278 0.821678
0.609342 0.159278 0.821678
0.716568 0.159278 0.821678
0.821678 0.159278 0.821678
0.924672 0.159278 0.821678
0.041472 0.274968 0.821678
0.159278 0.274968 0.821678
0.274968 0.274968 0.821678
0.388542 0.274968 0.821678
0.500000 0.274968 0.821678
0.609342 0.274968 0.821678
0.716568 0.274968 0.821678
0.821678 0.274968 0.821678
0.924672 0.274968 0.821678
0.041472 0.388542 0.821678
0.159278 0.388542 0.821678
0.274968 0.388542 0.821678
0.388542 0.388542 0.821678
0.500000 0.388542 0.821678
0.609342 0.388542 0.821678
0.716568 0.388542 0.821678
0.821678 0.388542 0.821678
0.924672 0.388542 0.821678
0.041472 0.500000 0.821678
0.159278 0.500000 0.821678
0.274968 0.500000 0.821678
0.388542 0.500000 0.821678
0.500000 0.500000 0.821678
0.609342 0.500000 0.821678
0.716568 0.500000 0.821678
0.821678 0.500000 0.821678
0.924672 0.500000 0.821678
0.041472 0.609342 0.821678
0.159278 0.609342 0.821678
0.274968 0.609342 0.821678
0.388542 0.609342 0.821678
0.500000 0.609342 0.821678
0.609342 0.609342 0.821678
0.716568 0.609342 0.821678
0.821678 0.609342 0.821678
0.924672 0.609342 0.821678
0.041472 0.716568 0.821678
0.159278 0.716568 0.821678
0.274968 0.716568 0.821678
0.388542 0.716568 0.821678
0.500000 0.716568 0.821678
0.609342 0.716568 0.821678
0.716568 0.716568 0.821678
0.821678 0.716568 0.821678
0.924672 0.716568 0.821678
0.041472 0.821678 0.821678
0.159278 0.821678 0.821678
0.274968 0.821678 0.821678
0.388542 0.821678 0.821678
0.500000 0.821678 0.821678
0.609342 0.821678 0.821678
0.716568 0.821678 0.821678
0.821678 0.821678 0.821678
0.924672 0.821678 0.821678
0.041472 0.924672 0.821678
0.159278 0.924672 0.821678
0.274968 0.924672 0.821678
0.388542 0.924672 0.821678
0.500000 0.924672 0.821678
0.609342 0.924672 0.821678
0.716568 0.924672 0.821678
0.821678 0.924672 0.821678
0.924672 0.924672 0.821678
0.041472 0.041472 0.924672
0.159278 0.041472 0.924672
0.274968 0.041472 0.924672
0.388542 0.041472 0.924672
0.500000 0.041472 0.924672
0.609342 0.041472 0.924672
0.716568 0.041472 0.924672
0.821678 0.041472 0.924672
0.924672 0.041472 0.924672
0.041472 0.159278 0.924672
0.159278 0.159278 0.924672
0.274968 0.159278 0.924672
0.388542 0.159278 0.924672
0.500000 0.159278 0.924672
0.609342 0.159278 0.924672
0.716568 0.159278 0.924672
0.821678 0.159278 0.924672
0.924672 0.159278 0.924672
0.041472 0.274968 0.924672
0.159278 0.274968 0.924672
0.274968 0.274968 0.924672
0.388542 0.274968 0.924672
0.500000 0.274968 0.924672
0.609342 0.274968 0.924672
0.716568 0.274968 0.924672
0.821678 0.274968 0.924672
0.924672 0.274968 0.924672
0.041472 0.388542 0.924672
0.159278 0.388542 0.924672
0.274968 0.388542 0.924672
0.388542 0.388542 0.924672
0.500000 0.388542 0.924672
0.609342 0.388542 0.924672
0.716568 0.388542 0.924672
0.821678 0.388542 0.924672
0.924672 0.388542 0.924672
0.041472 0.500000 0.924672
0.159278 0.500000 0.924672
0.274968 0.500000 0.924672
0.388542 0.500000 0.924672
0.500000 0.500000 0.924672
0.609342 0.500000 0.924672
0.716568 0.500000 0.924672
0.821678 0.500000 0.924672
0.924672 0.500000 0.924672
0.041472 0.609342 0.924672
0.159278 0.609342 0.924672
0.274968 0.609342 0.924672
0.388542 0.609342 0.924672
0.500000 0.609342 0.924672
0.609342 0.609342 0.924672
0.716568 0.609342 0.924672
0.821678 0.609342 0.924672
0.924672 0.609342 0.924672
0.041472 0.716568 0.924672
0.159278 0.716568 0.924672
0.274968 0.716568 0.924672
0.388542 0.716568 0.924672
0.500000 0.716568 0.924672
0.609342 0.716568 0.924672
0.716568 0.716568 0.924672
0.821678 0.716568 0.924672
0.924672 0.716568 0.924672
0.041472 0.821678 0.924672
0.159278 0.821678 0.924672
0.274968 0.821678 0.924672
0.388542 0.821678 0.924672
0.500000 0.821678 0.924672
0.609342 0.821678 0.924672
0.716568 0.821678 0.924672
0.821678 0.821678 0.924672
0.924672 0.821678 0.924672
0.041472 0.924672 0.924672
0.159278 0.924672 0.924672
0.274968 0.924672 0.924672
0.388542 0.924672 0.924672
0.500000 0.924672 0.924672
0.609342 0.924672 0.924672
0.716568 0.924672 0.924672
0.821678 0.924672 0.924672
0.924672 0.924672 0.924672
