data/luts/warm_lamp.cube
TITLE "warm_lamp"
LUT_3D_SIZE 9
DOMAIN_MIN 0.0 0.0 0.0
DOMAIN_MAX 1.0 1.0 1.0
0.025000 0.010000 0.000000
0.158750 0.010000 0.000000
0.292500 0.010000 0.000000
0.426250 0.010000 0.000000
0.560000 0.010000 0.000000
0.693750 0.010000 0.000000
0.827500 0.010000 0.000000
0.961250 0.010000 0.000000
1.000000 0.010000 0.000000
0.025000 0.136250 0.000000
0.158750 0.136250 0.000000
0.292500 0.136250 0.000000
0.426250 0.136250 0.000000
0.560000 0.136250 0.000000
0.693750 0.136250 0.000000
0.827500 0.136250 0.000000
0.961250 0.136250 0.000000
1.000000 0.136250 0.000000
0.025000 0.262500 0.000000
0.158750 0.262500 0.000000
0.292500 0.262500 0.000000
0.426250 0.262500 0.000000
0.560000 0.262500 0.000000
0.693750 0.262500 0.000000
0.827500 0.262500 0.000000
0.961250 0.262500 0.000000
1.000000 0.262500 0.000000
0.025000 0.388750 0.000000
0.158750 0.388750 0.000000
0.292500 0.388750 0.000000
0.426250 0.388750 0.000000
0.560000 0.388750 0.000000
0.693750 0.388750 0.000000
0.827500 0.388750 0.000000
0.961250 0.388750 0.000000
1.000000 0.388750 0.000000
0.025000 0.515000 0.000000
0.158750 0.515000 0.000000
0.292500 0.515000 0.000000
0.426250 0.515000 0.000000
0.560000 0.515000 0.000000
0.693750 0.515000 0.000000
0.827500 0.515000 0.000000
0.961250 0.515000 0.000000
1.000000 0.515000 0.000000
0.025000 0.641250 0.000000
0.158750 0.641250 0.000000
0.292500 0.641250 0.000000
0.426250 0.641250 0.000000
0.560000 0.641250 0.000000
0.693750 0.641250 0.000000
0.827500 0.641250 0.000000
0.961250 0.641250 0.000000
1.000000 0.641250 0.000000
0.025000 0.767500 0.000000
0.158750 0.767500 0.000000
0.292500 0.767500 0.000000
0.426250 0.767500 0.000000
0.560000 0.767500 0.000000
0.693750 0.767500 0.000000
0.827500 0.767500 0.000000
0.961250 0.767500 0.000000
1.000000 0.767500 0.000000
0.025000 0.893750 0.000000
0.158750 0.893750 0.000000
0.292500 0.893750 0.000000
0.426250 0.893750 0.000000
0.560000 0.893750 0.000000
0.693750 0.893750 0.000000
0.827500 0.893750 0.000000
0.961250 0.893750 0.000000
1.000000 0.893750 0.000000
0.025000 1.000000 0.000000
0.158750 1.000000 0.000000
0.292500 1.000000 0.000000
0.426250 1.000000 0.000000
0.560000 1.000000 0.000000
0.693750 1.000000 0.000000
0.827500 1.000000 0.000000
0.961250 1.000000 0.000000
1.000000 1.000000 0.000000
0.025000 0.010000 0.110000
0.158750 0.010000 0.110000
0.292500 0.010000 0.110000
0.426250 0.010000 0.110000
0.560000 0.010000 0.110000
0.693750 0.010000 0.110000
0.827500 0.010000 0.110000
0.961250 0.010000 0.110000
1.000000 0.010000 0.110000
0.025000 0.136250 0.110000
0.158750 0.136250 0.110000
0.292500 0.136250 0.110000
0.426250 0.136250 0.110000
0.560000 0.136250 0.110000
0.693750 0.136250 0.110000
0.827500 0.136250 0.110000
0.961250 0.136250 0.110000
1.000000 0.136250 0.110000
0.025000 0.262500 0.110000
0.158750 0.262500 0.110000
0.292500 0.262500 0.110000
0.426250 0.262500 0.110000
0.560000 0.262500 0.110000
0.693750 0.262500 0.110000
0.827500 0.262500 0.110000
0.961250 0.262500 0.110000
1.000000 0.262500 0.110000
0.025000 0.388750 0.110000
0.158750 0.388750 0.110000
0.292500 0.388750 0.110000
0.426250 0.388750 0.110000
0.560000 0.388750 0.110000
0.693750 0.388750 0.110000
0.827500 0.388750 0.110000
0.961250 0.388750 0.110000
1.000000 0.388750 0.110000
0.025000 0.515000 0.110000
0.158750 0.515000 0.110000
0.292500 0.515000 0.110000
0.426250 0.515000 0.110000
0.560000 0.515000 0.110000
0.693750 0.515000 0.110000
0.827500 0.515000 0.110000
0.961250 0.515000 0.110000
1.000000 0.515000 0.110000
0.025000 0.641250 0.110000
0.158750 0.641250 0.110000
0.292500 0.641250 0.110000
0.426250 0.641250 0.110000
0.560000 0.641250 0.110000
0.693750 0.641250 0.110000
0.827500 0.641250 0.110000
0.961250 0.641250 0.110000
1.000000 0.641250 0.110000
0.025000 0.767500 0.110000
0.158750 0.767500 0.110000
0.292500 0.767500 0.110000
0.426250 0.767500 0.110000
0.560000 0.767500 0.110000
0.693750 0.767500 0.110000
0.827500 0.767500 0.110000
0.961250 0.767500 0.110000
1.000000 0.767500 0.110000
0.025000 0.893750 0.110000
0.158750 0.893750 0.110000
0.292500 0.893750 0.110000
0.426250 0.893750 0.110000
0.560000 0.893750 0.110000
0.693750 0.893750 0.110000
0.827500 0.893750 0.110000
0.961250 0.893750 0.110000
1.000000 0.893750 0.110000
0.025000 1.000000 0.110000
0.158750 1.000000 0.110000
0.292500 1.000000 0.110000
0.426250 1.000000 0.110000
0.560000 1.000000 0.110000
0.693750 1.000000 0.110000
0.827500 1.000000 0.110000
0.961250 1.000000 0.110000
1.000000 1.000000 0.110000
0.025000 0.010000 0.220000
0.158750 0.010000 0.220000
0.292500 0.010000 0.220000
0.426250 0.010000 0.220000
0.560000 0.010000 0.220000
0.693750 0.010000 0.220000
0.827500 0.010000 0.220000
0.961250 0.010000 0.220000
1.000000 0.010000 0.220000
0.025000 0.136250 0.220000
0.158750 0.136250 0.220000
0.292500 0.136250 0.220000
0.426250 0.136250 0.220000
0.560000 0.136250 0.220000
0.693750 0.136250 0.220000
0.827500 0.136250 0.220000
0.961250 0.136250 0.220000
1.000000 0.136250 0.220000
0.025000 0.262500 0.220000
0.158750 0.262500 0.220000
0.292500 0.262500 0.220000
0.426250 0.262500 0.220000
0.560000 0.262500 0.220000
0.693750 0.262500 0.220000
0.827500 0.262500 0.220000
0.961250 0.262500 0.220000
1.000000 0.262500 0.220000
0.025000 0.388750 0.220000
0.158750 0.388750 0.220000
0.292500 0.388750 0.220000
0.426250 0.388750 0.220000
0.560000 0.388750 0.220000
0.693750 0.388750 0.220000
0.827500 0.388750 0.220000
0.961250 0.388750 0.220000
1.000000 0.388750 0.220000
0.025000 0.515000 0.220000
0.158750 0.515000 0.220000
0.292500 0.515000 0.220000
0.426250 0.515000 0.220000
0.560000 0.515000 0.220000
0.693750 0.515000 0.220000
0.827500 0.515000 0.220000
0.961250 0.515000 0.220000
1.000000 0.515000 0.220000
0.025000 0.641250 0.220000
0.158750 0.641250 0.220000
0.292500 0.641250 0.220000
0.426250 0.641250 0.220000
0.560000 0.641250 0.220000
0.693750 0.641250 0.220000
0.827500 0.641250 0.220000
0.961250 0.641250 0.220000
1.000000 0.641250 0.220000
0.025000 0.767500 0.220000
0.158750 0.767500 0.220000
0.292500 0.767500 0.220000
0.426250 0.767500 0.220000
0.560000 0.767500 0.220000
0.693750 0.767500 0.220000
0.827500 0.767500 0.220000
0.961250 0.767500 0.220000
1.000000 0.767500 0.220000
0.025000 0.893750 0.220000
0.158750 0.893750 0.220000
0.292500 0.893750 0.220000
0.426250 0.893750 0.220000
0.560000 0.893750 0.220000
0.693750 0.893750 0.220000
0.827500 0.893750 0.220000
0.961250 0.893750 0.220000
1.000000 0.893750 0.220000
0.025000 1.000000 0.220000
0.158750 1.000000 0.220000
0.292500 1.000000 0.220000
0.426250 1.000000 0.220000
0.560000 1.000000 0.220000
0.693750 1.000000 0.220000
0.827500 1.000000 0.220000
0.961250 1.000000 0.220000
1.000000 1.000000 0.220000
0.025000 0.010000 0.330000
0.158750 0.010000 0.330000
0.292500 0.010000 0.330000
0.426250 0.010000 0.330000
0.560000 0.010000 0.330000
0.693750 0.010000 0.330000
0.827500 0.010000 0.330000
0.961250 0.010000 0.330000
1.000000 0.010000 0.330000
0.025000 0.136250 0.330000
0.158750 0.136250 0.330000
0.292500 0.136250 0.330000
0.426250 0.136250 0.330000
0.560000 0.136250 0.330000
0.693750 0.136250 0.330000
0.827500 0.136250 0.330000
0.961250 0.136250 0.330000
1.000000 0.136250 0.330000
0.025000 0.262500 0.330000
0.158750 0.262500 0.330000
0.292500 0.262500 0.330000
0.426250 0.262500 0.330000
0.560000 0.262500 0.330000
0.693750 0.262500 0.330000
0.827500 0.262500 0.330000
0.961250 0.262500 0.330000
1.000000 0.262500 0.330000
0.025000 0.388750 0.330000
0.158750 0.388750 0.330000
0.292500 0.388750 0.330000
0.426250 0.388750 0.330000
0.560000 0.388750 0.330000
0.693750 0.388750 0.330000
0.827500 0.388750 0.330000
0.961250 0.388750 0.330000
1.000000 0.388750 0.330000
0.025000 0.515000 0.330000
0.158750 0.515000 0.330000
0.292500 0.515000 0.330000
0.426250 0.515000 0.330000
0.560000 0.515000 0.330000
0.693750 0.515000 0.330000
0.827500 0.515000 0.330000
0.961250 0.515000 0.330000
1.000000 0.515000 0.330000
0.025000 0.641250 0.330000
0.158750 0.641250 0.330000
0.292500 0.641250 0.330000
0.426250 0.641250 0.330000
0.560000 0.641250 0.330000
0.693750 0.641250 0.330000
0.827500 0.641250 0.330000
0.961250 0.641250 0.330000
1.000000 0.641250 0.330000
0.025000 0.767500 0.330000
0.158750 0.767500 0.330000
0.292500 0.767500 0.330000
0.426250 0.767500 0.330000
0.560000 0.767500 0.330000
0.693750 0.767500 0.330000
0.827500 0.767500 0.330000
0.961250 0.767500 0.330000
1.000000 0.767500 0.330000
0.025000 0.893750 0.330000
0.158750 0.893750 0.330000
0.292500 0.893750 0.330000
0.426250 0.893750 0.330000
0.560000 0.893750 0.330000
0.693750 0.893750 0.330000
0.827500 0.893750 0.330000
0.961250 0.893750 0.330000
1.000000 0.893750 0.330000
0.025000 1.000000 0.330000
0.158750 1.000000 0.330000
0.292500 1.000000 0.330000
0.426250 1.000000 0.330000
0.560000 1.000000 0.330000
0.693750 1.000000 0.330000
0.827500 1.000000 0.330000
0.961250 1.000000 0.330000
1.000000 1.000000 0.330000
0.025000 0.010000 0.440000
0.158750 0.010000 0.440000
0.292500 0.010000 0.440000
0.426250 0.010000 0.440000
0.560000 0.010000 0.440000
0.693750 0.010000 0.440000
0.827500 0.010000 0.440000
0.961250 0.010000 0.440000
1.000000 0.010000 0.440000
0.025000 0.136250 0.440000
0.158750 0.136250 0.440000
0.292500 0.136250 0.440000
0.426250 0.136250 0.440000
0.560000 0.136250 0.440000
0.693750 0.136250 0.440000
0.827500 0.136250 0.440000
0.961250 0.136250 0.440000
1.000000 0.136250 0.440000
0.025000 0.262500 0.440000
0.158750 0.262500 0.440000
0.292500 0.262500 0.440000
0.426250 0.262500 0.440000
0.560000 0.262500 0.440000
0.693750 0.262500 0.440000
0.827500 0.262500 0.440000
0.961250 0.262500 0.440000
1.000000 0.262500 0.440000
0.025000 0.388750 0.440000
0.158750 0.388750 0.440000
0.292500 0.388750 0.440000
0.426250 0.388750 0.440000
0.560000 0.388750 0.440000
0.693750 0.388750 0.440000
0.827500 0.388750 0.440000
0.961250 0.388750 0.440000
1.000000 0.388750 0.440000
0.025000 0.515000 0.440000
0.158750 0.515000 0.440000
0.292500 0.515000 0.440000
0.426250 0.515000 0.440000
0.560000 0.515000 0.440000
0.693750 0.515000 0.440000
0.827500 0.515000 0.440000
0.961250 0.515000 0.440000
1.000000 0.515000 0.440000
0.025000 0.641250 0.440000
0.158750 0.641250 0.440000
0.292500 0.641250 0.440000
0.426250 0.641250 0.440000
0.560000 0.641250 0.440000
0.693750 0.641250 0.440000
0.827500 0.641250 0.440000
0.961250 0.641250 0.440000
1.000000 0.641250 0.440000
0.025000 0.767500 0.440000
0.158750 0.767500 0.440000
0.292500 0.767500 0.440000
0.426250 0.767500 0.440000
0.560000 0.767500 0.440000
0.693750 0.767500 0.440000
0.827500 0.767500 0.440000
0.961250 0.767500 0.440000
1.000000 0.767500 0.440000
0.025000 0.893750 0.440000
0.158750 0.893750 0.440000
0.292500 0.893750 0.440000
0.426250 0.893750 0.440000
0.560000 0.893750 0.440000
0.693750 0.893750 0.440000
0.827500 0.893750 0.440000
0.961250 0.893750 0.440000
1.000000 0.893750 0.440000
0.025000 1.000000 0.440000
0.158750 1.000000 0.440000
0.292500 1.000000 0.440000
0.426250 1.000000 0.440000
0.560000 1.000000 0.440000
0.693750 1.000000 0.440000
0.827500 1.000000 0.440000
0.961250 1.000000 0.440000
1.000000 1.000000 0.440000
0.025000 0.010000 0.550000
0.158750 0.010000 0.550000
0.292500 0.010000 0.550000
0.426250 0.010000 0.550000
0.560000 0.010000 0.550000
0.693750 0.010000 0.550000
0.827500 0.010000 0.550000
0.961250 0.010000 0.550000
1.000000 0.010000 0.550000
0.025000 0.136250 0.550000
0.158750 0.136250 0.550000
0.292500 0.136250 0.550000
0.426250 0.136250 0.550000
0.560000 0.136250 0.550000
0.693750 0.136250 0.550000
0.827500 0.136250 0.550000
0.961250 0.136250 0.550000
1.000000 0.136250 0.550000
0.025000 0.262500 0.550000
0.158750 0.262500 0.550000
0.292500 0.262500 0.550000
0.426250 0.262500 0.550000
0.560000 0.262500 0.550000
0.693750 0.262500 0.550000
0.827500 0.262500 0.550000
0.961250 0.262500 0.550000
1.000000 0.262500 0.550000
0.025000 0.388750 0.550000
0.158750 0.388750 0.550000
0.292500 0.388750 0.550000
0.426250 0.388750 0.550000
0.560000 0.388750 0.550000
0.693750 0.388750 0.550000
0.827500 0.388750 0.550000
0.961250 0.388750 0.550000
1.000000 0.388750 0.550000
0.025000 0.515000 0.550000
0.158750 0.515000 0.550000
0.292500 0.515000 0.550000
0.426250 0.515000 0.550000
0.560000 0.515000 0.550000
0.693750 0.515000 0.550000
0.827500 0.515000 0.550000
0.961250 0.515000 0.550000
1.000000 0.515000 0.550000
0.025000 0.641250 0.550000
0.158750 0.641250 0.550000
0.292500 0.641250 0.550000
0.426250 0.641250 0.550000
0.560000 0.641250 0.550000
0.693750 0.641250 0.550000
0.827500 0.641250 0.550000
0.961250 0.641250 0.550000
1.000000 0.641250 0.550000
0.025000 0.767500 0.550000
0.158750 0.767500 0.550000
0.292500 0.767500 0.550000
0.426250 0.767500 0.550000
0.560000 0.767500 0.550000
0.693750 0.767500 0.550000
0.827500 0.767500 0.550000
0.961250 0.767500 0.550000
1.000000 0.767500 0.550000
0.025000 0.893750 0.550000
0.158750 0.893750 0.550000
0.292500 0.893750 0.550000
0.426250 0.893750 0.550000
0.560000 0.893750 0.550000
0.693750 0.893750 0.550000
0.827500 0.893750 0.550000
0.961250 0.893750 0.550000
1.000000 0.893750 0.550000
0.025000 1.000000 0.550000
0.158750 1.000000 0.550000
0.292500 1.000000 0.550000
0.426250 1.000000 0.550000
0.560000 1.000000 0.550000
0.693750 1.000000 0.550000
0.827500 1.000000 0.550000
0.961250 1.000000 0.550000
1.000000 1.000000 0.550000
0.025000 0.010000 0.660000
0.158750 0.010000 0.660000
0.292500 0.010000 0.660000
0.426250 0.010000 0.660000
0.560000 0.010000 0.660000
0.693750 0.010000 0.660000
0.827500 0.010000 0.660000
0.961250 0.010000 0.660000
1.000000 0.010000 0.660000
0.025000 0.136250 0.660000
0.158750 0.136250 0.660000
0.292500 0.136250 0.660000
0.426250 0.136250 0.660000
0.560000 0.136250 0.660000
0.693750 0.136250 0.660000
0.827500 0.136250 0.660000
0.961250 0.136250 0.660000
1.000000 0.136250 0.660000
0.025000 0.262500 0.660000
0.158750 0.262500 0.660000
0.292500 0.262500 0.660000
0.426250 0.262500 0.660000
0.560000 0.262500 0.660000
0.693750 0.262500 0.660000
0.827500 0.262500 0.660000
0.961250 0.262500 0.660000
1.000000 0.262500 0.660000
0.025000 0.388750 0.660000
0.158750 0.388750 0.660000
0.292500 0.388750 0.660000
0.426250 0.388750 0.660000
0.560000 0.388750 0.660000
0.693750 0.388750 0.660000
0.827500 0.388750 0.660000
0.961250 0.388750 0.660000
1.000000 0.388750 0.660000
0.025000 0.515000 0.660000
0.158750 0.515000 0.660000
0.292500 0.515000 0.660000
0.426250 0.515000 0.660000
0.560000 0.515000 0.660000
0.693750 0.515000 0.660000
0.827500 0.515000 0.660000
0.961250 0.515000 0.660000
1.000000 0.515000 0.660000
0.025000 0.641250 0.660000
0.158750 0.641250 0.660000
0.292500 0.641250 0.660000
0.426250 0.641250 0.660000
0.560000 0.641250 0.660000
0.693750 0.641250 0.660000
0.827500 0.641250 0.660000
0.961250 0.641250 0.660000
1.000000 0.641250 0.660000
0.025000 0.767500 0.660000
0.158750 0.767500 0.660000
0.292500 0.767500 0.660000
0.426250 0.767500 0.660000
0.560000 0.767500 0.660000
0.693750 0.767500 0.660000
0.827500 0.767500 0.660000
0.961250 0.767500 0.660000
1.000000 0.767500 0.660000
0.025000 0.893750 0.660000
0.158750 0.893750 0.660000
0.292500 0.893750 0.660000
0.426250 0.893750 0.660000
0.560000 0.893750 0.660000
0.693750 0.893750 0.660000
0.827500 0.893750 0.660000
0.961250 0.893750 0.660000
1.000000 0.893750 0.660000
0.025000 1.000000 0.660000
0.158750 1.000000 0.660000
0.292500 1.000000 0.660000
0.426250 1.000000 0.660000
0.560000 1.000000 0.660000
0.693750 1.000000 0.660000
0.827500 1.000000 0.660000
0.961250 1.000000 0.660000
1.000000 1.000000 0.660000
0.025000 0.010000 0.770000
0.158750 0.010000 0.770000
0.292500 0.010000 0.770000
0.426250 0.010000 0.770000
0.560000 0.010000 0.770000
0.693750 0.010000 0.770000
0.827500 0.010000 0.770000
0.961250 0.010000 0.770000
1.000000 0.010000 0.770000
0.025000 0.136250 0.770000
0.158750 0.136250 0.770000
0.292500 0.136250 0.770000
0.426250 0.136250 0.770000
0.560000 0.136250 0.770000
0.693750 0.136250 0.770000
0.827500 0.136250 0.770000
0.961250 0.136250 0.770000
1.000000 0.136250 0.770000
0.025000 0.262500 0.770000
0.158750 0.262500 0.770000
0.292500 0.262500 0.770000
0.426250 0.262500 0.770000
0.560000 0.262500 0.770000
0.693750 0.262500 0.770000
0.827500 0.262500 0.770000
0.961250 0.262500 0.770000
1.000000 0.262500 0.770000
0.025000 0.388750 0.770000
0.158750 0.388750 0.770000
0.292500 0.388750 0.770000
0.426250 0.388750 0.770000
0.560000 0.388750 0.770000
0.693750 0.388750 0.770000
0.827500 0.388750 0.770000
0.961250 0.388750 0.770000
1.000000 0.388750 0.770000
0.025000 0.515000 0.770000
0.158750 0.515000 0.770000
0.292500 0.515000 0.770000
0.426250 0.515000 0.770000
0.560000 0.515000 0.770000
0.693750 0.515000 0.770000
0.827500 0.515000 0.770000
0.961250 0.515000 0.770000
1.000000 0.515000 0.770000
0.025000 0.641250 0.770000
0.158750 0.641250 0.770000
0.292500 0.641250 0.770000
0.426250 0.641250 0.770000
0.560000 0.641250 0.770000
0.693750 0.641250 0.770000
0.827500 0.641250 0.770000
0.961250 0.641250 0.770000
1.000000 0.641250 0.770000
0.025000 0.767500 0.770000
0.158750 0.767500 0.770000
0.292500 0.767500 0.770000
0.426250 0.767500 0.770000
0.560000 0.767500 0.770000
0.693750 0.767500 0.770000
0.827500 0.767500 0.770000
0.961250 0.767500 0.770000
1.000000 0.767500 0.770000
0.025000 0.893750 0.770000
0.158750 0.893750 0.770000
0.292500 0.893750 0.770000
0.426250 0.893750 0.770000
0.560000 0.893750 0.770000
0.693750 0.893750 0.770000
0.827500 0.893750 0.770000
0.961250 0.893750 0.770000
1.000000 0.893750 0.770000
0.025000 1.000000 0.770000
0.158750 1.000000 0.770000
0.292500 1.000000 0.770000
0.426250 1.000000 0.770000
0.560000 1.000000 0.770000
0.693750 1.000000 0.770000
0.827500 1.000000 0.770000
0.961250 1.000000 0.770000
1.000000 1.000000 0.770000
0.025000 0.010000 0.880000
0.158750 0.010000 0.880000
0.292500 0.010000 0.880000
0.426250 0.010000 0.880000
0.560000 0.010000 0.880000
0.693750 0.010000 0.880000
0.827500 0.010000 0.880000
0.961250 0.010000 0.880000
1.000000 0.010000 0.880000
0.025000 0.136250 0.880000
0.158750 0.136250 0.880000
0.292500 0.136250 0.880000
0.426250 0.136250 0.880000
0.560000 0.136250 0.880000
0.693750 0.136250 0.880000
0.827500 0.136250 0.880000
0.961250 0.136250 0.880000
1.000000 0.136250 0.880000
0.025000 0.262500 0.880000
0.158750 0.262500 0.880000
0.292500 0.262500 0.880000
0.426250 0.262500 0.880000
0.560000 0.262500 0.880000
0.693750 0.262500 0.880000
0.827500 0.262500 0.880000
0.961250 0.262500 0.880000
1.000000 0.262500 0.880000
0.025000 0.388750 0.880000
0.158750 0.388750 0.880000
0.292500 0.388750 0.880000
0.426250 0.388750 0.880000
0.560000 0.388750 0.880000
0.693750 0.388750 0.880000
0.827500 0.388750 0.880000
0.961250 0.388750 0.880000
1.000000 0.388750 0.880000
0.025000 0.515000 0.880000
0.158750 0.515000 0.880000
0.292500 0.515000 0.880000
0.426250 0.515000 0.880000
0.560000 0.515000 0.880000
0.693750 0.515000 0.880000
0.827500 0.515000 0.880000
0.961250 0.515000 0.880000
1.000000 0.515000 0.880000
0.025000 0.641250 0.880000
0.158750 0.641250 0.880000
0.292500 0.641250 0.880000
0.426250 0.641250 0.880000
0.560000 0.641250 0.880000
0.693750 0.641250 0.880000
0.827500 0.641250 0.880000
0.961250 0.641250 0.880000
1.000000 0.641250 0.880000
0.025000 0.767500 0.880000
0.158750 0.767500 0.880000
0.292500 0.767500 0.880000
0.426250 0.767500 0.880000
0.560000 0.767500 0.880000
0.693750 0.767500 0.880000
0.827500 0.767500 0.880000
0.961250 0.767500 0.880000
1.000000 0.767500 0.880000
0.025000 0.893750 0.880000
0.158750 0.893750 0.880000
0.292500 0.893750 0.880000
0.426250 0.893750 0.880000
0.560000 0.893750 0.880000
0.693750 0.893750 0.880000
0.827500 0.893750 0.880000
0.961250 0.893750 0.880000
1.000000 0.893750 0.880000
0.025000 1.000000 0.880000
0.158750 1.000000 0.880000
0.292500 1.000000 0.880000
0.426250 1.000000 0.880000
0.560000 1.000000 0.880000
0.693750 1.000000 0.880000
0.827500 1.000000 0.880000
0.961250 1.000000 0.880000
1.000000 1.000000 0.880000
